X:78
T:House of Duncan
M:6/8
L:1/8
K:Edor
E|E>FE G>FE|B>GF G>FE|D>ED D>FA|dcB AFD|E>FE G2A|B>GE G2A|(3(B/c/d/)B2 A>^GA|B>GE E2::
e/f/|g>ab efe|g>ab e2e|f>ga ded|f>ga d2d|e>fg f>ga|g>ab e>fg|e>dB A>^GA|B>GE E2:|
%%%newpage
